X:19
T:Charming Molly Doublings
S:Ashworth's Instructor, p. 35
M:2/4
%%MIDI program 72
%%MIDI transpose 8
L:1/16
K:G
|:B2|c2cA B2BG|A2Bc dBGB|c2cA B2BG|E2A2 A3B|c2cA B2BG|
A2Bc dBGB|c2cA B2BG|E2A2 A2::B2|ABcd e2g2|fagf e^cAB|
ABcd e2g2|fagf e2fg|a2af g2ge|dBge dBGB|ABcd efgB|A2A2 A2:|]

